X:164 
T:Padraig's Hope* (reel)
F:file ID: cre.5/164padr_h
B:CRE5.120ii (gan ainm)
N:A Padraig O'Keeffe version of 'Lady Ann Hope'
Q:180
M:4/4
R:reel
K:G
(3DEF|GFGB AGED|FEFA GEcG|BGBd cAFA|EGFA GFED|
GFGB AGEG|cBcd afgd|B2Bd cAFA|EGFA G2||
Bd|gd~d2 gdBd|g2af gedB|cdef gBBA|EGFA GFED|
gd~d2 gdBd|g2af gedB|cdef gdBG|EGFA G4|]


%%%

